calendar-remove-outline.svg

<svg fill="currentColor" viewBox="0 0 24 24"><path d="M19 3h-1V1h-2v2H8V1H6v2H5c-1.1 0-2 .9-2 2v14a2 2 0 0 0 2 2h14c1.11 0 2-.89 2-2V5a2 2 0 0 0-2-2m0 16H5V9h14zM5 7V5h14v2zm3.23 9.41 1.06 1.06 2.44-2.44 2.44 2.44 1.06-1.06-2.44-2.44 2.44-2.44-1.06-1.06-2.44 2.44-2.44-2.44-1.06 1.06 2.44 2.44z"/></svg>

<svg  viewBox="0 0 24 24" fill="currentColor"><path  d="M19 3H18V1H16V3H8V1H6V3H5C3.9 3 3 3.9 3 5V19C3 20.11 3.9 21 5 21H19C20.11 21 21 20.11 21 19V5C21 3.9 20.11 3 19 3M19 19H5V9H19V19M5 7V5H19V7H5M8.23 16.41L9.29 17.47L11.73 15.03L14.17 17.47L15.23 16.41L12.79 13.97L15.23 11.53L14.17 10.47L11.73 12.91L9.29 10.47L8.23 11.53L10.67 13.97L8.23 16.41Z"/></svg>
